X:1
T:Berkeley, 88.86 D
T:Berkeley, 88.86 D
T:John Robson Sweney, 1889
T:Public Domain Courtesy of the Cyber Hymnal™
C:John Robson Sweney, 1889
Z:Public Domain
Z:Courtesy of the Cyber Hymnal™
%%score ( 1 2 ) ( 3 4 )
L:1/8
Q:1/4=90
M:3/4
K:Bb
V:1 treble 
V:2 treble 
V:3 bass 
V:4 bass 
V:1
 [DF]2 | [Fd]>[Ec] [DB]3 [FA] | [EG]>[EB] [DF]3 [DF] | [CF]>[CE] [Ec]3 [EA] | %4
 [Fd]>[Ec] [DB]3 [FA] | [Fd]>[Ec] [DB]3 [FA] | [EG]>[EB] !fermata![DF]2 [DF]2 | %7
 [C=E]3 [EB] [EA][CEG] | [CF]4 [CF]2 | [Fc]>[Fc] [Fc]3 [FB] | [FB]>[FA] [FA]3 F | %11
 [Fd]>[Fd] [Fd]3 [Ec] | [Ec]>[DB] [DB]3 F | D>F B3 [Fd] | [Ec]>[Fd] !fermata![Ge]2 [Ge]2 | %15
 [Fd]3 [Fc] [FB][EA] | [DB]4 |] %17
V:2
 x2 | x6 | x6 | x6 | x6 | x6 | x6 | x6 | x6 | x6 | x5 F | x6 | x5 F | D>F B3 x | x6 | x6 | x4 |] %17
V:3
 [B,,B,]2 | [B,,B,]>[B,,F,] [B,,F,]3 [E,B,] | [E,B,]>[G,B,] B,3 [B,,B,] | %3
 [F,A,]>[F,A,] [F,A,]3 [F,C] | [B,,B,]>[B,,B,] [B,,F,]3 [B,,B,] | [B,,B,]>[B,,F,] [B,,F,]3 [D,B,] | %6
 [E,B,]>[G,B,] !fermata!B,2 [B,,B,]2 | [C,G,]3 [C,G,] [C,C][C,B,] | [F,A,]4 [F,A,]2 | %9
 [F,E]>[F,E] [F,E]3 [F,D] | [F,D]>[F,C] [F,C]3 [F,A,] | [B,,B,]>[B,,B,] [B,,B,]3 [B,,F,] | %12
 [B,,F,]>[B,,F,] [B,,F,]3 F, | D,>F, B,3 [B,,B,] | [E,G,]>[D,=B,] !fermata![C,C]2 [E,C]2 | %15
 F,3 [F,E] [F,D][F,C] | [B,,B,]4 |] %17
V:4
 x2 | x6 | x2 B,3 x | x6 | x6 | x6 | x2 B,2 x2 | x6 | x6 | x6 | x6 | x6 | x5 F, | D,>F, B,3 x | %14
 x6 | F,3 x3 | x4 |] %17

